icon-themes/sifr_svg/cmd/sc_saveasremote.svg

<svg viewBox="0 0 16 16" xmlns="http://www.w3.org/2000/svg"><path d="m14 0-1 1 2 2 1-1c-.129005-1.3579461-.925643-1.85750715-2-2zm-12 1c-.554 0-1 .446-1 1v11c0 .554.446 1 1 1h1v-5h3v-2h-3v-4h6.5859375l2.0000005-2zm10 1-5 5v2h2l5-5zm3 2.4160156c-.666518.6661643-1.333629 1.331735-2 1.9980469v.5859375h-.585938c-.666665.6666673-1.333388 1.3332764-2 2h2.585938v5h1c.554 0 1-.446 1-1zm-11 5.5839844v4h2v-3h2v3h-1v1h-7v1h16v-1h-7v-1h3v-4h-2.5859375-3.4140625z" fill="#555753"/></svg>

<svg xmlns="http://www.w3.org/2000/svg" viewBox="0 0 16 16">
  <path
     style="fill:#555753"
     d="M 14 0 L 13 1 L 15 3 L 16 2 C 15.870995 0.6420539 15.074357 0.14249285 14 0 z M 2 1 C 1.446 1 1 1.446 1 2 L 1 13 C 1 13.554 1.446 14 2 14 L 3 14 L 3 9 L 6 9 L 6 7 L 3 7 L 3 3 L 9.5859375 3 L 11.585938 1 L 2 1 z M 12 2 L 7 7 L 7 9 L 9 9 L 14 4 L 12 2 z M 15 4.4160156 C 14.333482 5.0821799 13.666371 5.7477506 13 6.4140625 L 13 7 L 12.414062 7 C 11.747397 7.6666673 11.080674 8.3332764 10.414062 9 L 13 9 L 13 14 L 14 14 C 14.554 14 15 13.554 15 13 L 15 4.4160156 z M 4 10 L 4 14 L 6 14 L 6 11 L 8 11 L 8 14 L 7 14 L 7 15 L 0 15 L 0 16 L 16 16 L 16 15 L 9 15 L 9 14 L 12 14 L 12 10 L 9.4140625 10 L 6 10 L 4 10 z "
     />
</svg>
